X:122
T:Jenny Lind
R:Polka
M:4/4
K:D
P:A
"D"F2A2 "G"G2B2|"D"A2f2 fe f2|"G"G2e2 ed e2|"D"F2d2 d2 AG|\
"D"F2A2 "G"G2B2|"D"A2f2 fe f2|"G"g2f2 "A"egfe|"D"d2f2 d4||
P:B Note the key change!
K:G
"G"g2f2 "C"egfe|"G"d2B2 BA B2|"Am"c2A2 AG A2|"G"B2G2 G2ef|\
"G"g2f2 "C"egfe|"G"d2B2 BA B2|"C"c2B2 "D"AGA2|"G"G2 B2 G4||
